src/pos-icons/radius.svg

<svg height="24" viewBox="0 0 24 24" width="24" xmlns="http://www.w3.org/2000/svg"><path d="m12 2a10 10 0 0 0 -10 10 10 10 0 0 0 10 10 10 10 0 0 0 10-10 10 10 0 0 0 -10-10m5 13v-2h-3.28c-.36.62-1.01 1-1.72 1a2 2 0 0 1 -2-2 2 2 0 0 1 2-2c.71 0 1.36.38 1.72 1h3.28v-2l3 3z"/></svg>

<?xml version="1.0" encoding="UTF-8"?><!DOCTYPE svg PUBLIC "-//W3C//DTD SVG 1.1//EN" "http://www.w3.org/Graphics/SVG/1.1/DTD/svg11.dtd"><svg xmlns="http://www.w3.org/2000/svg" xmlns:xlink="http://www.w3.org/1999/xlink" version="1.1" id="mdi-radius" width="24" height="24" viewBox="0 0 24 24"><path d="M12,2A10,10 0 0,0 2,12A10,10 0 0,0 12,22A10,10 0 0,0 22,12A10,10 0 0,0 12,2M17,15V13H13.72C13.36,13.62 12.71,14 12,14A2,2 0 0,1 10,12A2,2 0 0,1 12,10C12.71,10 13.36,10.38 13.72,11H17V9L20,12L17,15Z" /></svg>
